;Generated with Cura_SteamEngine 15.01
;FLAVOR:UltiGCode
;TIME:3606      
;MATERIAL:6713      
;MATERIAL2:0         
; Default start code
G28 ; Home extruder
G1 Z15 F100
M107 ; Turn off fan
G90 ; Absolute positioning
M82 ; Extruder in absolute mode
M190 S60
; Activate all used extruder
M104 T0 S200
G92 E0 ; Reset extruder position
; Wait for all used extruders to reach temperature
M109 T0 S200
;Layer count: 147
;LAYER:0
M107
G0 F2400 X179.295 Y145.640 Z0.270
;TYPE:SKIRT
G1 F1440 X186.495 Y145.640 E0.97200
G1 X186.495 Y150.940 E1.68750
G1 X179.295 Y150.940 E2.65950
G1 X179.295 Y145.640 E3.37500
G0 F2400 X177.429 Y153.649
G1 F1440 X179.291 Y154.847 E3.67390
G1 X179.291 Y154.846 E3.67404
G1 X180.655 Y155.703 E3.89151
G1 X181.612 Y156.286 E4.04279
G1 X182.243 Y156.656 E4.14154
G1 X182.995 Y157.076 E4.25782
G1 X183.363 Y156.875 E4.31443
G1 X183.363 Y156.876 E4.31456
G1 X184.065 Y156.475 E4.42370
G1 X184.854 Y156.003 E4.54782
G1 X185.341 Y155.706 E4.62483
G1 X185.341 Y155.705 E4.62496
G1 X186.708 Y154.846 E4.84292
G1 X186.708 Y154.847 E4.84306
G1 X188.569 Y153.649 E5.14185
G1 X194.782 Y149.591 E6.14366
G1 X195.769 Y148.945 E6.30291
G1 X196.083 Y148.747 E6.35302
G1 X196.352 Y148.924 E6.39649
G1 X196.227 Y149.707 E6.50353
G1 X194.626 Y158.162 E7.66524
G1 X195.031 Y158.049 E7.72201
G1 X206.019 Y154.915 E9.26454
G1 X206.398 Y154.828 E9.31704
G1 X206.590 Y155.111 E9.36321
G1 X206.154 Y155.742 E9.46675
G1 X198.616 Y166.466 E11.23636
G1 X198.951 Y166.568 E11.28363
G1 X208.244 Y169.271 E12.59018
G1 X208.499 Y169.348 E12.62614
G1 X208.499 Y169.724 E12.67690
G1 X207.004 Y170.252 E12.89094
G1 X200.443 Y172.551 E13.82948
G1 X200.621 Y172.679 E13.85908
G1 X204.786 Y175.637 E14.54873
G1 X205.229 Y175.958 E14.62258
G1 X205.207 Y176.288 E14.66723
G1 X204.385 Y176.515 E14.78236
G1 X195.383 Y178.933 E16.04070
G1 X195.521 Y179.068 E16.06677
G1 X195.654 Y179.298 E16.10263
G1 X195.403 Y179.568 E16.15240
G1 X194.949 Y179.350 E16.22039
G1 X194.875 Y179.808 E16.28302
G1 X194.027 Y186.195 E17.15283
G1 X193.915 Y186.912 E17.25080
G1 X193.612 Y186.912 E17.29171
G1 X193.005 Y186.498 E17.39090
G1 X189.934 Y184.368 E17.89544
G1 X189.784 Y184.925 E17.97332
G1 X189.560 Y185.599 E18.06920
G1 X189.275 Y186.246 E18.16464
G1 X188.928 Y186.854 E18.25915
G1 X188.532 Y187.412 E18.35152
G1 X188.447 Y187.528 E18.37094
G1 X188.071 Y187.943 E18.44654
G1 X187.577 Y188.409 E18.53822
G1 X187.469 Y188.506 E18.55781
G1 X187.030 Y188.829 E18.63139
G1 X186.915 Y188.916 E18.65086
G1 X186.443 Y189.198 E18.72509
G1 X186.321 Y189.272 E18.74435
G1 X185.817 Y189.509 E18.81954
G1 X185.172 Y189.753 E18.91263
G1 X184.506 Y189.933 E19.00577
G1 X183.835 Y190.045 E19.09761
G1 X183.691 Y190.067 E19.11727
G1 X183.146 Y190.092 E19.19093
G1 X183.001 Y190.100 E19.21053
G1 X182.309 Y190.066 E19.30406
G1 X181.625 Y189.965 E19.39740
G1 X180.956 Y189.799 E19.49046
G1 X180.304 Y189.566 E19.58393
G1 X179.679 Y189.271 E19.67723
G1 X179.086 Y188.915 E19.77060
G1 X178.530 Y188.505 E19.86387
G1 X178.018 Y188.040 E19.95724
G1 X177.553 Y187.527 E20.05071
G1 X177.141 Y186.970 E20.14424
G1 X176.784 Y186.368 E20.23872
G1 X176.486 Y185.728 E20.33403
G1 X176.252 Y185.057 E20.42997
G1 X176.067 Y184.366 E20.52654
G1 X172.752 Y186.665 E21.07115
G1 X172.340 Y186.943 E21.13825
G1 X172.063 Y186.832 E21.17854
G1 X171.971 Y186.193 E21.26569
G1 X171.149 Y179.984 E22.11122
G1 X171.067 Y179.394 E22.19163
G1 X171.060 Y179.357 E22.19672
G1 X170.951 Y179.416 E22.21345
G1 X170.582 Y179.561 E22.26697
G1 X170.351 Y179.295 E22.31453
G1 X170.478 Y179.068 E22.34965
G1 X170.617 Y178.935 E22.37562
G1 X170.106 Y178.795 E22.44715
G1 X161.351 Y176.445 E23.67091
G1 X160.714 Y176.258 E23.76053
G1 X160.814 Y175.926 E23.80734
G1 X161.472 Y175.454 E23.91666
G1 X165.555 Y172.552 E24.59291
G1 X165.304 Y172.463 E24.62886
G1 X158.131 Y169.949 E25.65497
G1 X157.497 Y169.722 E25.74588
G1 X157.504 Y169.362 E25.79449
G1 X158.323 Y169.105 E25.91037
G1 X167.323 Y166.488 E27.17569
G1 X167.385 Y166.469 E27.18445
G1 X167.274 Y166.309 E27.21074
G1 X159.638 Y155.447 E29.00320
G1 X159.410 Y155.117 E29.05735
G1 X159.597 Y154.835 E29.10303
G1 X159.978 Y154.914 E29.15556
G1 X161.169 Y155.252 E29.32269
G1 X170.969 Y158.050 E30.69856
G1 X170.969 Y158.049 E30.69869
G1 X171.370 Y158.162 E30.75493
G1 X171.330 Y157.924 E30.78752
G1 X171.329 Y157.924 E30.78765
G1 X169.772 Y149.709 E31.91642
G1 X169.675 Y149.170 E31.99035
G1 X169.641 Y148.920 E32.02441
G1 X169.908 Y148.748 E32.06729
G1 X170.474 Y149.104 E32.15756
G1 X177.429 Y153.649 E33.27919
G0 F2400 X168.028 Y181.020
G1 F1440 X168.393 Y181.202 E33.33425
G1 X168.239 Y181.505 E33.38013
G1 X167.856 Y181.975 E33.46198
G1 X167.174 Y182.798 E33.60628
G1 X166.740 Y183.333 E33.69928
G1 X166.731 Y183.345 E33.70131
G1 X166.387 Y183.771 E33.77522
G1 X165.999 Y184.262 E33.85971
G1 X165.688 Y184.632 E33.92496
G1 X165.381 Y184.906 E33.98051
G1 X165.272 Y184.970 E33.99757
G1 X165.032 Y185.018 E34.03062
G1 X164.892 Y184.732 E34.07360
G1 X164.951 Y184.385 E34.12112
G1 X165.069 Y183.955 E34.18132
G1 X165.239 Y183.522 E34.24412
G1 X165.506 Y183.054 E34.31686
G1 X165.651 Y182.855 E34.35010
G1 X166.112 Y182.372 E34.44023
G1 X166.668 Y181.917 E34.53722
G1 X167.202 Y181.529 E34.62633
G1 X167.678 Y181.219 E34.70302
G1 X168.028 Y181.020 E34.75737
G0 F2400 X197.601 Y181.188
G1 F1440 X197.985 Y181.023 E34.81380
G1 X198.783 Y181.518 E34.94057
G1 X199.204 Y181.820 E35.01051
G1 X199.887 Y182.372 E35.12907
G1 X200.348 Y182.855 E35.21921
G1 X200.522 Y183.091 E35.25879
G1 X200.796 Y183.601 E35.33695
G1 X200.994 Y184.163 E35.41739
G1 X201.050 Y184.386 E35.44843
G1 X201.092 Y184.628 E35.48159
G1 X201.091 Y184.689 E35.48982
G1 X201.111 Y184.940 E35.52381
G1 X200.733 Y184.985 E35.57521
G1 X200.521 Y184.830 E35.61066
G1 X200.072 Y184.352 E35.69919
G1 X199.657 Y183.828 E35.78943
G1 X199.271 Y183.348 E35.87258
G1 X198.824 Y182.797 E35.96837
G1 X198.144 Y181.976 E36.11228
G1 X197.759 Y181.504 E36.19451
G1 X197.601 Y181.188 E36.24221
G10
G0 F2400 X195.871 Y177.765
;TYPE:WALL-INNER
G11
G1 F1440 X195.099 Y177.975 E36.35022
G1 X194.548 Y178.134 E36.42764
G1 X194.531 Y178.128 E36.43007
G1 X194.518 Y178.142 E36.43265
G1 X193.868 Y178.330 E36.52400
G1 X194.038 Y178.713 E36.58057
G1 X193.886 Y179.658 E36.70978
G1 X193.738 Y180.761 E36.86002
G1 X193.128 Y185.366 E37.48712
G1 X191.391 Y184.162 E37.77244
G1 X190.641 Y183.642 E37.89565
G1 X190.218 Y183.348 E37.96519
G1 X189.254 Y182.660 E38.12508
G1 X189.044 Y183.715 E38.27030
G1 X188.202 Y183.362 E38.39355
G1 X187.887 Y183.231 E38.43961
G1 X187.584 Y183.149 E38.48198
G1 X187.052 Y183.402 E38.56151
G1 X186.838 Y183.878 E38.63197
G1 X185.945 Y183.838 E38.75264
G1 X185.075 Y183.804 E38.87018
G1 X184.071 Y183.777 E39.00577
G1 X183.000 Y183.765 E39.15037
G1 X182.410 Y183.771 E39.23002
G1 X181.377 Y183.791 E39.36950
G1 X180.443 Y183.823 E39.49567
G1 X179.679 Y183.855 E39.59890
G1 X179.166 Y183.878 E39.66822
G1 X178.932 Y183.383 E39.74214
G1 X178.354 Y183.136 E39.82699
G1 X177.573 Y183.456 E39.94093
G1 X176.955 Y183.715 E40.03140
G1 X176.745 Y182.679 E40.17410
G1 X172.872 Y185.366 E40.81047
G1 X172.804 Y184.847 E40.88113
G1 X172.140 Y179.851 E41.56152
G1 X172.055 Y179.238 E41.64507
G1 X171.977 Y178.832 E41.70088
G1 X172.175 Y178.521 E41.75065
G1 X171.503 Y178.184 E41.85214
G1 X171.492 Y178.173 E41.85424
G1 X171.312 Y178.089 E41.88106
G1 X170.369 Y177.830 E42.01307
G1 X168.276 Y177.267 E42.30567
G1 X162.736 Y175.783 E43.07994
G1 X165.957 Y173.495 E43.61332
G1 X166.428 Y173.158 E43.69150
G1 X166.858 Y172.833 E43.76427
G1 X166.767 Y171.922 E43.88786
G1 X165.638 Y171.520 E44.04965
G1 X161.129 Y169.939 E44.69470
G1 X160.607 Y169.757 E44.76933
G1 X160.179 Y169.607 E44.83056
G1 X167.605 Y167.447 E45.87461
G1 X168.348 Y167.222 E45.97942
G1 X168.606 Y166.479 E46.08560
G1 X168.095 Y165.738 E46.20711
G1 X161.526 Y156.395 E47.74897
G1 X168.748 Y158.455 E48.76283
G1 X169.572 Y158.691 E48.87854
G1 X170.696 Y159.011 E49.03631
G1 X171.271 Y159.174 E49.11700
G1 X171.703 Y159.291 E49.17742
G1 X172.525 Y158.992 E49.29550
G1 X172.313 Y157.744 E49.46639
G1 X170.963 Y150.619 E50.44538
G1 X172.811 Y151.831 E50.74373
G1 X174.811 Y153.138 E51.06627
G1 X176.887 Y154.489 E51.40065
G1 X178.756 Y155.691 E51.70064
G1 X180.131 Y156.555 E51.91987
G1 X181.097 Y157.144 E52.07261
G1 X181.745 Y157.523 E52.17396
G1 X182.280 Y157.822 E52.25670
G1 X182.746 Y158.069 E52.32790
G1 X183.002 Y158.104 E52.36278
G1 X183.268 Y158.066 E52.39905
G1 X183.848 Y157.750 E52.48822
G1 X184.568 Y157.339 E52.60014
G1 X185.370 Y156.859 E52.72632
G1 X185.869 Y156.555 E52.80520
G1 X187.243 Y155.691 E53.02432
G1 X189.112 Y154.489 E53.32431
G1 X191.187 Y153.138 E53.65858
G1 X194.019 Y151.288 E54.11524
G1 X195.036 Y150.620 E54.27950
G1 X193.762 Y157.343 E55.20326
G1 X193.638 Y158.003 E55.29392
G1 X193.480 Y158.994 E55.42939
G1 X194.299 Y159.292 E55.54705
G1 X195.302 Y159.012 E55.68763
G1 X204.473 Y156.394 E56.97518
G1 X198.125 Y165.423 E58.46520
G1 X197.739 Y165.975 E58.55613
G1 X197.424 Y166.438 E58.63173
G1 X197.593 Y167.200 E58.73710
G1 X198.667 Y167.527 E58.88866
G1 X199.613 Y167.802 E59.02166
G1 X201.988 Y168.492 E59.35554
G1 X205.821 Y169.607 E59.89445
G1 X203.373 Y170.463 E60.24455
G1 X199.848 Y171.700 E60.74887
G1 X199.231 Y171.927 E60.83763
G1 X199.140 Y172.845 E60.96216
G1 X200.040 Y173.493 E61.11188
G1 X201.508 Y174.535 E61.35491
G1 X203.262 Y175.781 E61.64536
G1 X195.871 Y177.765 E62.67847
G0 F2400 X195.234 Y178.456
;TYPE:WALL-OUTER
G1 F1440 X194.558 Y178.651 E62.77345
G1 X194.618 Y178.786 E62.79340
G1 X194.514 Y178.904 E62.81463
G1 X194.381 Y179.731 E62.92771
G1 X193.532 Y186.124 E63.79834
G1 X193.514 Y186.240 E63.81419
G1 X189.933 Y183.759 E64.40232
G1 X189.593 Y183.517 E64.45866
G1 X189.447 Y184.254 E64.56008
G1 X189.307 Y184.774 E64.63278
G1 X189.094 Y185.414 E64.72384
G1 X188.826 Y186.023 E64.81367
G1 X188.508 Y186.581 E64.90037
G1 X188.129 Y187.116 E64.98888
G1 X187.712 Y187.595 E65.07462
G1 X187.239 Y188.040 E65.16229
G1 X186.731 Y188.428 E65.24859
G1 X186.186 Y188.769 E65.33538
G1 X185.621 Y189.049 E65.42050
G1 X185.014 Y189.278 E65.50809
G1 X184.407 Y189.442 E65.59297
G1 X183.754 Y189.551 E65.68234
G1 X183.644 Y189.568 E65.69737
G1 X183.118 Y189.592 E65.76845
G1 X182.997 Y189.599 E65.78482
G1 X182.353 Y189.567 E65.87186
G1 X181.728 Y189.475 E65.95715
G1 X181.093 Y189.317 E66.04549
G1 X180.500 Y189.106 E66.13046
G1 X179.913 Y188.828 E66.21814
G1 X179.367 Y188.501 E66.30406
G1 X178.845 Y188.115 E66.39170
G1 X178.372 Y187.686 E66.47791
G1 X177.943 Y187.212 E66.56422
G1 X177.558 Y186.692 E66.65156
G1 X177.226 Y186.133 E66.73934
G1 X176.949 Y185.537 E66.82806
G1 X176.727 Y184.901 E66.91900
G1 X176.554 Y184.256 E67.00915
G1 X176.406 Y183.523 E67.11011
G1 X172.483 Y186.244 E67.75463
G1 X172.466 Y186.127 E67.77059
G1 X171.645 Y179.919 E68.61597
G1 X171.562 Y179.319 E68.69774
G1 X171.480 Y178.894 E68.75618
G1 X171.400 Y178.808 E68.77203
G1 X171.456 Y178.720 E68.78611
G1 X171.132 Y178.558 E68.83502
G1 X170.238 Y178.313 E68.96016
G1 X161.583 Y175.989 E70.16997
G1 X166.132 Y172.756 E70.92338
G1 X166.333 Y172.604 E70.95740
G1 X166.301 Y172.287 E71.00042
G1 X165.471 Y171.991 E71.11938
G1 X158.540 Y169.562 E72.11086
G1 X167.463 Y166.968 E73.36533
G1 X167.959 Y166.817 E73.43533
G1 X168.051 Y166.554 E73.47294
G1 X167.685 Y166.024 E73.55990
G1 X160.305 Y155.527 E75.29217
G1 X161.032 Y155.733 E75.39418
G1 X170.832 Y158.530 E76.77001
G1 X171.404 Y158.692 E76.85027
G1 X171.681 Y158.767 E76.88901
G1 X171.962 Y158.665 E76.92936
G1 X171.821 Y157.833 E77.04328
G1 X170.264 Y149.617 E78.17219
G1 X170.252 Y149.556 E78.18058
G1 X177.158 Y154.069 E79.29431
G1 X179.024 Y155.269 E79.59381
G1 X180.394 Y156.130 E79.81225
G1 X181.354 Y156.715 E79.96402
G1 X181.993 Y157.089 E80.06398
G1 X182.793 Y157.535 E80.18763
G1 X182.896 Y157.585 E80.20308
G1 X183.001 Y157.599 E80.21738
G1 X183.108 Y157.584 E80.23197
G1 X183.605 Y157.313 E80.30839
G1 X184.315 Y156.908 E80.41874
G1 X185.111 Y156.431 E80.54402
G1 X185.606 Y156.130 E80.62223
G1 X186.975 Y155.269 E80.84055
G1 X188.841 Y154.069 E81.14006
G1 X195.055 Y150.010 E82.14206
G1 X195.745 Y149.558 E82.25341
G1 X194.131 Y158.088 E83.42540
G1 X194.039 Y158.665 E83.50427
G1 X194.319 Y158.767 E83.54450
G1 X195.166 Y158.531 E83.66321
G1 X205.693 Y155.527 E85.14108
G1 X198.150 Y166.259 E86.91196
G1 X197.959 Y166.541 E86.95794
G1 X198.018 Y166.807 E86.99473
G1 X198.810 Y167.048 E87.10649
G1 X207.454 Y169.562 E88.32178
G1 X206.837 Y169.780 E88.41012
G1 X200.017 Y172.171 E89.38576
G1 X199.698 Y172.288 E89.43163
G1 X199.666 Y172.608 E89.47505
G1 X200.331 Y173.086 E89.58561
G1 X204.416 Y175.988 E90.26208
G1 X195.234 Y178.456 E91.54564
G0 F2400 X195.150 Y178.117
G0 X194.032 Y178.407
G0 X189.351 Y182.903
G0 X188.919 Y184.167
G0 X188.585 Y184.065
G1 F1440 X187.949 Y183.798 E91.63876
G1 X187.755 Y183.718 E91.66709
G1 X187.624 Y183.684 E91.68536
G1 X187.433 Y183.775 E91.71392
G1 X187.178 Y184.340 E91.79761
G1 X187.155 Y184.389 E91.80492
G1 X186.594 Y184.368 E91.88070
G1 X185.924 Y184.337 E91.97125
G1 X185.058 Y184.304 E92.08825
G1 X184.062 Y184.277 E92.22275
G1 X183.000 Y184.265 E92.36613
G1 X182.417 Y184.271 E92.44484
G1 X181.390 Y184.291 E92.58351
G1 X180.462 Y184.322 E92.70886
G1 X179.176 Y184.378 E92.88264
G1 X178.848 Y184.390 E92.92695
G1 X178.561 Y183.768 E93.01943
G1 X178.350 Y183.678 E93.05039
G1 X177.764 Y183.918 E93.13588
G1 X177.412 Y184.066 E93.18743
G1 X177.656 Y184.839 E93.29686
G1 X177.851 Y185.330 E93.36818
G1 X178.097 Y185.809 E93.44088
G1 X178.325 Y186.184 E93.50013
G1 X178.588 Y186.537 E93.55955
G1 X178.949 Y186.951 E93.63371
G1 X179.351 Y187.329 E93.70820
G1 X179.788 Y187.667 E93.78278
G1 X180.256 Y187.960 E93.85732
G1 X180.750 Y188.206 E93.93182
G1 X181.256 Y188.399 E94.00493
G1 X181.903 Y188.574 E94.09542
G1 X182.448 Y188.656 E94.16982
G1 X183.000 Y188.683 E94.24443
G1 X183.551 Y188.657 E94.31890
G1 X184.097 Y188.575 E94.39343
G1 X184.632 Y188.439 E94.46796
G1 X185.152 Y188.253 E94.54251
G1 X185.650 Y188.017 E94.61691
G1 X186.124 Y187.732 E94.69158
G1 X186.567 Y187.404 E94.76599
G1 X186.976 Y187.034 E94.84045
G1 X187.346 Y186.625 E94.91490
G1 X187.675 Y186.184 E94.98918
G1 X187.958 Y185.718 E95.06278
G1 X188.194 Y185.233 E95.13560
G1 X188.379 Y184.740 E95.20668
G1 X188.585 Y184.065 E95.30196
G0 F2400 X188.802 Y184.206
;TYPE:SKIN
G1 F1440 X188.875 Y184.633 E95.36161
G1 X188.697 Y185.162 E95.42113
G1 X188.637 Y185.809 E95.47938
G1 X188.091 Y185.970 E95.53686
G1 X188.115 Y186.701 E95.59433
G1 X187.507 Y186.801 E95.65156
G1 X187.468 Y187.468 E95.70820
G1 X186.807 Y187.514 E95.76438
G1 X186.709 Y188.122 E95.82075
G1 X185.984 Y188.106 E95.87772
G1 X185.833 Y188.662 E95.93606
G1 X185.187 Y188.723 E95.99562
G1 X184.656 Y188.899 E96.05740
G1 X184.082 Y189.032 E96.12215
G1 X183.459 Y189.116 E96.19072
G1 X182.764 Y189.128 E96.26729
G1 X181.976 Y189.048 E96.35604
G1 X181.224 Y188.649 E96.47097
G0 F2400 X180.823 Y188.955
G1 F1440 X179.899 Y188.031 E96.64737
G0 F2400 X179.304 Y188.143
G1 F1440 X177.910 Y186.749 E96.91352
G0 F2400 X178.002 Y186.133
G1 F1440 X177.111 Y185.242 E97.08362
G0 F2400 X177.386 Y184.810
G1 F1440 X176.805 Y184.230 E97.19445
G0 F2400 X177.348 Y183.359
G1 F1440 X176.988 Y182.999 E97.26318
G0 F2400 X176.573 Y182.584
G1 F1440 X166.963 Y172.973 E99.09801
G0 F2400 X166.560 Y173.277
G1 F1440 X171.143 Y177.861 E99.97309
G0 F2400 X170.177 Y177.601
G1 F1440 X166.147 Y173.572 E100.74239
G0 F2400 X165.734 Y173.866
G1 F1440 X169.209 Y177.341 E101.40584
G0 F2400 X168.242 Y177.081
G1 F1440 X165.320 Y174.159 E101.96370
G0 F2400 X164.907 Y174.453
G1 F1440 X167.275 Y176.821 E102.41580
G0 F2400 X166.307 Y176.561
G1 F1440 X164.494 Y174.747 E102.76203
G0 F2400 X164.081 Y175.041
G1 F1440 X165.340 Y176.300 E103.00239
G0 F2400 X164.374 Y176.041
G1 F1440 X163.460 Y175.481 E103.13726
G1 X163.406 Y175.781 E103.17841
G0 F2400 X166.778 Y172.799
G0 X166.691 Y171.981
G0 X165.161 Y171.172
G1 F1440 X162.965 Y168.975 E103.59777
G0 F2400 X162.418 Y169.135
G1 F1440 X164.070 Y170.788 E103.91326
G0 F2400 X162.979 Y170.404
G1 F1440 X161.870 Y169.295 E104.12499
G0 F2400 X161.323 Y169.455
G1 F1440 X161.889 Y170.020 E104.23295
